X:1
T:Czerny - The Art Oof Finger Dexterity
T:Czerny - The Art Of Finger Dexterity
T:5. Evenness in double Passages..
T:C.Czerny, Op. 740, Book 1
T:--
C:C.Czerny, Op. 740, Book 1
Z:--
%%score { 1 | 2 }
L:1/8
Q:1/4=130
M:2/2
K:Eb
V:1 treble nm="Piano" snm="Pno."
V:2 bass 
V:1
 G,/A,/B,/C/ D/E/F/G/ A/B/c/d/ e/f/g/a/ | b/a/g/a/ b/a/g/a/ b/a/g/a/ b/a/g/a/ | %2
 b/c'/b/a/ g/a/b/a/ g/f/e/d/ c/B/A/G/ | A/B/c/B/ A/G/F/E/ D/E/F/E/ D/E/F/E/ | %4
 D/E/F/G/ A/B/c/d/ e/f/g/a/ b/c'/d'/e'/ | %5
!8va(! f'/g'/f'/e'/ d'/e'/f'/g'/ a'/g'/f'/g'/ a'/g'/f'/g'/ | %6
 a'/b'/c''/b'/ a'/b'/a'/g'/ f'/g'/f'/e'/ d'/c'/b/a/ | g/a/b/a/ g/a/b/a/ g/a/b/c'/ d'/e'/f'/g'/ | %8
 a'/g'/f'/g'/ a'/g'/f'/g'/ a'/g'/f'/e'/ d'/c'/b/a/ | g/a/b/a/ g/a/b/a/ g/a/b/c'/ d'/e'/f'/g'/ | %10
 a'/g'/f'/g'/ a'/g'/f'/g'/ a'/g'/f'/e'/ d'/c'/b/a/ | g/a/b/a/ g/a/b/a/ g/a/b/c'/ d'/e'/f'/g'/ | %12
 =a'/b'/c''/b'/ a'/b'/c''/b'/ a'/g'/f'/e'/ d'/c'/b/=a/ || %13
 b/c'/d'/c'/ b/c'/d'/c'/ b/c'/d'/e'/ f'/g'/=a'/b'/ | %14
 c''/d''/e''/f''/ e''/d''/c''/b'/ =a'/b'/c''/b'/ a'/g'/f'/e'/ | %15
 d'/c'/d'/e'/ f'/g'/f'/e'/ d'/c'/b/=a/ g/f/e/d/ | c/d/e/d/ c/B/=A/B/ c/d/e/f/ g/=a/b/c'/ | %17
 d'/c'/d'/e'/ f'/g'/f'/e'/ d'/c'/b/=a/ g/f/e/d/ | c/d/e/d/ c/B/=A/B/ c/d/e/f/ g/=a/b/c'/ | %19
 d'/e'/d'/c'/ d'/e'/f'/e'/ d'/c'/b/=a/ g/f/e/d/!8va)! | e/f/e/d/ e/f/g/f/ e/d/c/B/ =A/G/F/E/ | %21
"B7""^(change key to Eb.)" F/G/F/E/ F/G/_A/G/ F/E/D/C/ B,/A,/G,/F,/ | %22
"Eb" G,/A,/G,/F,/ G,/A,/B,/A,/ G,/A,/B,/C/ D/E/F/G/ | F/G/F/E/ D/E/D/E/ F/G/F/E/ D/E/D/E/ | %24
 F/D/E/F/ G/A/B/c/ d/e/f/e/ d/c/B/A/ || B/c/B/A/ G/A/G/A/ B/c/B/A/ G/A/G/A/ | %26
 B/G/A/B/ c/_d/e/f/ g/a/b/a/ g/f/e/d/ | c/_d/e/f/ g/a/b/c'/!8va(! _d'/e'/f'/g'/ a'/b'/c''/_d''/ | %28
 e''/_d''/c''/b'/ a'/g'/f'/e'/!8va)! _d'/c'/b/a/ g/f/e/_d/ | %29
 c/_d/e/f/ g/a/b/c'/!8va(! _d'/e'/f'/g'/ a'/b'/c''/_d''/ | %30
 e''/_d''/c''/b'/ a'/g'/f'/e'/!8va)! _d'/c'/b/a/ g/f/e/_d/ | %31
 c/_d/e/f/ g/a/b/c'/ b/a/g/f/ =e/d/c/B/ | A/B/c/=d/ =e/f/g/a/ g/f/e/_d/ c/B/A/G/ | %33
 A/B/A/G/ A/B/c/B/ A/B/A/G/ F/G/F/_E/ | D/E/F/G/ A/B/A/G/ F/G/F/E/ D/C/B,/A,/ | %35
!<(! G,/F,/E,/F,/ G,/A,/B,/C/ D/E/F/G/ A/B/c/d/!<)! | %36
!>(! e/f/g/f/ e/d/c/B/ A/G/F/E/ D/C/B,/A,/!>)! | %37
!<(! G,/F,/E,/F,/ G,/A,/B,/C/ D/E/F/G/ A/B/c/d/!<)! | %38
!>(! e/f/g/f/ e/d/c/B/ A/G/F/E/ D/C/B,/A,/!>)! | G,/B,/A,/G,/ A,/B,/C/D/ E/F/G/F/ E/D/C/B,/ | %40
 A,/C/B,/A,/ B,/C/D/E/ F/G/A/G/ F/E/D/C/ | B,/D/C/B,/ C/D/E/F/ G/A/B/A/ G/F/E/D/ | %42
 C/E/D/C/ D/E/F/G/ A/B/c/B/ A/G/F/E/ | D/C/B,/C/ D/E/F/G/ A/B/c/d/ e/f/g/a/ | %44
!8va(! b/c'/d'/e'/ f'/g'/a'/b'/ c''/d''/e''/f''/ e''/d''/c''/b'/ | %45
 a'/c''/b'/a'/ g'/b'/a'/g'/ f'/a'/g'/f'/ e'/g'/f'/e'/ | %46
 d'/f'/e'/d'/ c'/e'/d'/c'/ b/d'/c'/b/ a/c'/b/a/ | %47
 g/a/b/c'/ d'/e'/f'/g'/ a'/g'/f'/e'/ d'/c'/b/a/!8va)! | g/f/e/d/ c/B/A/G/ F/B/G/B/ A/B/F/B/ | %49
 G/A/B/c/ d/e/f/g/ a/g/f/e/ d/c/B/A/ | G/F/E/D/ C/B,/A,/G,/ F,/B,/G,/B,/ A,/B,/F,/B,/ | %51
 G,/A,/B,/C/ D/E/F/G/ C/D/E/F/ G/A/B/c/ | F/G/A/B/ c/d/e/f/ B/c/d/e/ f/g/a/b/ | %53
 e/f/g/a/ b/c'/d'/e'/!8va(! a/b/c'/d'/ e'/f'/g'/a'/ | %54
 d'/e'/f'/g'/ a'/b'/c''/b'/ a'/g'/f'/e'/ d'/c'/b/a/!8va)! | g z [GBeg] z [Aea] z [=Ae_g=a] z | %56
 [Be=gb][I:staff +1] G,,/A,,/ B,,/C,/D,/E,/ F,/G,/A,/B,/[I:staff -1] C/D/E/F/ | %57
 G/A/B/c/ d/e/f/g/ a/b/c'/d'/ e'/f'/g'/a'/ | b' z z2 [DFABd] z z2 | [EGBe] z z2 z4 |] %60
V:2
!f! E,,/F,,/G,,/A,,/ B,,/C,/D,/E,/ F,/G,/A,/B,/[K:treble] C/D/E/F/ | %1
 G/F/E/F/ G/F/E/F/ G/F/E/F/ G/F/E/F/ | G/A/G/F/ E/F/G/F/ E/D/C/B,/[K:bass] A,/G,/F,/E,/ | %3
 F,/G,/A,/G,/ F,/E,/D,/C,/ B,,/C,/D,/C,/ B,,/C,/D,/C,/ | %4
 B,,/C,/D,/E,/ F,/G,/A,/B,/[K:treble] C/D/E/F/ G/A/B/c/ | d/e/d/c/ B/c/d/e/ f/e/d/e/ f/e/d/e/ | %6
 f/g/a/g/ f/g/f/e/ d/e/d/c/ B/A/G/F/ | E/F/G/F/ E/F/G/F/ E/F/G/A/ B/c/d/e/ | %8
 f/e/d/e/ f/e/d/e/ f/e/d/c/ B/A/G/F/ | E/F/G/F/ E/F/G/F/ E/F/G/A/ B/c/d/e/ | %10
 f/e/d/e/ f/e/d/e/ f/e/d/c/ B/A/G/F/ | E/F/G/F/ E/F/G/F/ E/F/G/A/ B/c/d/e/ | %12
 c/d/e/d/ c/d/e/d/ c/B/=A/G/ F/E/D/C/ || D/E/F/E/ D/E/F/E/ D/E/F/G/ =A/B/c/d/ | %14
 =A/B/c/d/ c/B/A/G/ F/G/A/B/ c/B/A/c/ | B/=A/B/c/ d/e/d/c/ B/A/G/F/ E/D/C/B,/ | %16
 =A,/B,/C/B,/ A,/G,/F,/G,/ A,/B,/C/D/ E/F/G/=A/ | B/=A/B/c/ d/e/d/c/ B/A/G/F/ E/D/C/B,/ | %18
 =A,/B,/C/B,/ A,/G,/F,/G,/ A,/B,/C/D/ E/F/G/=A/ | B/c/B/=A/ B/c/d/c/ B/A/G/F/ E/D/C/B,/ | %20
[K:bass] C/D/C/B,/ C/D/E/D/ C/B,/=A,/G,/ F,/E,/D,/C,/ | %21
 D,/E,/D,/C,/ D,/E,/F,/E,/ D,/C,/B,,/_A,,/ G,,/F,,/E,,/D,,/ | %22
 E,,/F,,/E,,/D,,/ E,,/F,,/G,,/F,,/ E,,/F,,/G,,/A,,/ B,,/C,/D,/E,/ | %23
 D,/E,/D,/C,/ B,,/C,/B,,/C,/ D,/E,/D,/C,/ B,,/C,/B,,/C,/ | %24
 D,/B,,/C,/D,/ E,/F,/G,/A,/ B,/C/D/C/ B,/A,/G,/F,/ || %25
 G,/A,/G,/F,/ E,/F,/E,/F,/ G,/A,/G,/F,/ E,/F,/E,/F,/ | %26
 G,/E,/F,/G,/ A,/B,/C/_D/[K:treble] E/F/G/F/ E/_D/C/B,/ | A,/B,/C/_D/ E/F/G/A/ B/c/_d/e/ f/g/a/b/ | %28
 c'/b/a/g/ f/e/_d/c/ B/A/G/F/ E/_D/C/B,/ | A,/B,/C/_D/ E/F/G/A/ B/c/_d/e/ f/g/a/_b/ | %30
 c'/b/a/g/ f/e/_d/c/ B/A/G/F/ E/_D/C/B,/ | A,/B,/C/_D/ E/F/G/A/ G/F/=E/D/[K:bass] C/B,/A,/G,/ | %32
 F,/G,/A,/B,/ C/=D/E/F/ E/_D/C/B,/ A,/G,/F,/=E,/ | %33
 F,/G,/F,/=E,/ F,/G,/A,/G,/ F,/G,/F,/_E,/ =D,/E,/D,/C,/ | %34
 B,,/C,/D,/E,/ F,/G,/F,/E,/ D,/E,/D,/C,/ B,,/A,,/G,,/F,,/ | %35
 E,,/F,,/G,,/A,,/ B,,/C,/D,/E,/ F,/G,/A,/B,/ C/D/E/F/ | %36
 G/F/E/D/ C/B,/A,/G,/ F,/E,/D,/C,/ B,,/A,,/G,,/F,,/ | %37
 E,,/F,,/G,,/A,,/ B,,/C,/D,/E,/ F,/G,/A,/B,/ C/D/E/F/ | %38
 G/F/E/D/ C/B,/A,/G,/ F,/E,/D,/C,/ B,,/A,,/G,,/F,,/ | %39
 E,,/G,,/F,,/E,,/ F,,/G,,/A,,/B,,/ C,/D,/E,/D,/ C,/B,,/A,,/G,,/ | %40
 F,,/A,,/G,,/F,,/ G,,/A,,/B,,/C,/ D,/E,/F,/E,/ D,/C,/B,,/A,,/ | %41
 G,,/B,,/A,,/G,,/ A,,/B,,/C,/D,/ E,/F,/G,/F,/ E,/D,/C,/B,,/ | %42
 A,,/C,/B,,/A,,/ B,,/C,/D,/E,/ F,/G,/A,/G,/ F,/E,/D,/C,/ | %43
 B,,/C,/D,/E,/ F,/G,/A,/B,/[K:treble] C/D/E/F/ G/A/B/c/ | %44
 d/e/f/g/ a/b/c'/d'/!8va(! g'/a'/b'/c''/ b'/a'/g'/f'/!8va)! | %45
 c'/e'/d'/c'/ b/d'/c'/b/ a/c'/b/a/ g/b/a/g/ | f/a/g/f/ e/g/f/e/ d/f/e/d/ B/d/f/d/ | %47
 e/f/g/a/ b/c'/d'/e'/ f'/e'/d'/c'/ b/a/g/f/ | e/d/c/B/ A/G/F/E/ D/B,/E/B,/ F/B,/D/B,/ | %49
 E/F/G/A/ B/c/d/e/ f/e/d/c/ B/A/G/F/ | %50
[K:bass] E/D/C/B,/ A,/G,/F,/E,/ D,/B,,/E,/B,,/ F,/B,,/D,/B,,/ | %51
 E,,/F,,/G,,/A,,/ B,,/C,/D,/E,/ A,,/B,,/C,/D,/ E,/F,/G,/A,/ | %52
 D,/E,/F,/G,/ A,/B,/C/D/ G,/A,/B,/C/[K:treble] D/E/F/G/ | C/D/E/F/ G/A/B/c/ F/G/A/B/ c/d/e/f/ | %54
 B/c/d/e/ f/g/a/g/ f/e/d/c/ B/A/G/F/ | E z[K:bass] [_D,,_D,] z [C,,E,,C,] z [_C,,E,,_C,] z | %56
 [B,,,E,,G,,B,,] E,,/F,,/ G,,/A,,/B,,/C,/ D,/E,/F,/G,/ A,/B,/C/D/ | %57
[K:treble] E/F/G/A/ B/c/d/e/ f/g/a/b/ c'/d'/e'/f'/ | g' z z2[K:bass] [B,,D,F,B,] z z2 | %59
 [E,,G,,B,,E,] z z2 z4 |] %60

